X:2
T:I Have Dreamed
C:Harold Arlen
L:1/4
M:C
I:linebreak $
K:G
"G" G3/2 F/ G2- | G D/G/"Am" A d |"G" A2 G2- |"Am" G4 |"G" G3/2 F/ G2- | G D/G/"Am" A d ||
[K:A]"F#m" A4- |"F7" A4 |$"F#m" A3/2 G/ A2- | A E/A/"E7" B e |"F#m" B2 A2- ||[K:G]"Am" A2"D7" B A |
"Em" G4- |"Eo" G2 A G |"D7" F4- ||[K:B]"C7" F4 |$"B" B3/2 A/ B2- | B F/B/"C#m" c f |"B" c2 B2- |
"C#m" B4 |"B" B3/2 A/ B2- | B F/B/"C#m" c f ||[K:G]"D" f4- |$"D" f2 g f |"G" e d"C" B A |
"F#ø" B2"B7b5" g f |"Em" e d B A |"Dbø" B2"Cm" G A |"Bm" B2"Am" c"G" d |$"C" e2"B7" f2 |
"Em" g4- |"Dbø" g2"Cm" f g |"Bm" a2"Bbo" f g |"Am" e2"Ab7" f2 |"G" g4- | g4 |]

